X:43
T:Alunelul
O:rumania
M:4/4
L:1/8
Q:1/4=
K:Am
V:1
"C" g3/2 ^f/g3/2 a/"G7" g3/2 f/e3/2 d/|"C" c2 "G" d2 "C" .e2  (3ef^f |"C" g3/2 ^f/g3/2 a/"E7" g3/2 f/e3/2 d/|"Am" c2 "E" B2 "Am" A4 :| |:
"C" (c2 .e2) "G" (d2 .g2) |"C" (c2 .e2) {^f}"G" g4 |"C" (c2 .e2) "E7" (d2 .g2) |c"Am" A B"E7" ^G "Am" A2 A2 |
:|
V:2          %2e stem
|  8  |:e3/2 d/e3/2 f/e3/2 d/c3/2 A/|E2 F2 G4 |
e3/2 d/e3/2 f/e3/2 d/c3/2 B/|A2 ^G2 A4 :| |:c4 BA GF |E4 GA Bd |
c4 BA ^GF |EF ^GB A4 :|





